X: 11
T: Toss The Feathers
R: reel
M: 4/4
L: 1/8
K: Dmix
|: D2 ED ADED | ABcA GEcE | D2 (3FED ADFA | Afed cAGE
D2 ED ADED | ABcA GE ~E2 | cABG A2 AB |1 cfed cAGE :|2 cfed cAGB|
|: Ad ~d2 Ad ~d2 | Ad^cd edcd | eaag ~a2 ag | eaag ed^cd |
efge afge | ~f2ed dcAB | cABG A2 Bc |1 dfed cAGB :|2 dfed cAGE ||


Tune 113	Setting 12699

